X:68
T:First House in Connaught
M:C
L:1/8
K:G Major
GE|DGG2 AGG2|BddB AGFE|DFF2 AFF2|ABcA BGAF|!
DGG2 AGG2|BddB AGFA|defg agfd|cAFA G2:|!
Bd|g2ga gfef|g2bg gede|fede fgaf|g2ag bgaf|!
gfga gfef|g2bg gfd^c|defg agfd|cAFA G2:|!
